X:623
T: Xiu yige shehuizhuyi haoqiancheng
N: C2142
O: China,Hubei Jiangling
S: I, 386]
R: Xiaodiao, Xiuhebao diao]
M: 3/4
L: 1/16
K: G
A2A2BdB2A2GE | A3BA4 | G2GEG2ABA2GE | D3EG4
EBAGABG2 | A3GD2E2 | GAGED4 | EDEGA4 | ABG2A2GE | D2E2D4

@@@ Tune index: 7178
